X:02101
T:Out On The Ocean
R:Jig
B:Tuneworks Tunebook (https://www.tuneworks.co.uk/)
G:Tuneworks
Z:Jon Warbrick <jon.warbrick@googlemail.com>
M:6/8
L:1/8
K:G
|: "G"D2 B BAG | BdB ABA | "C"GED G2 A | "D"BAB AGE | 
"G"D2 B BAG | BdB ABA | "C"GED G2 A | [1 "D"BGF G2 E :| [2 "D"BGE GBd |
|: "Em"e2 e edB | ege edB | "D"d2 d def | gfe dBA | 
"G"G2 A B2 d | "C"ege dBA | GED G2 A | [1 "D"BGF GBd :| [2 "D"BGE "G"GFE  |]